X: 14563
T: Gan Ainm
R: barndance
M: 4/4
K: Gmajor
BA|:"G"G2B2"D"D2C2|"G"B,D GA Bcd2|"Am"cd cB A2 G2|"C"ED EF "D"GA BA|
"G"G2B2"D"D2C2|"G"B,D GA Bc ^cd|"C"cB ce "D"d2F2|1 "G"G6 BA:|2 "G"GA Bc ^cd ef||
"G"ga gf "D"e2d2|"Em"ef ed "G"BA GB|"Am"cd cB "Em"AB AG|"C"ED EF "D"GA BA|
"G"G2B2 "D"DE =F^F|"G"GA Bc ^c2 d2|"C"cB ce "D"d2F2|"G"GA Bc ^cd ef|
"G"ga gf "D"e2d2|"Em"ef ed "G"BA GB|"Am"cd cB "Em"AB AG|"C"E2 z2 "D"F2 z2|
"G"G2B2"D"D2C2|"G"B,D GA Bc ^cd|"C"cB ce "D"d2F2|"G"G6 z2||

